material/.icons/material/horizontal-rotate-clockwise.svg

<svg xmlns="http://www.w3.org/2000/svg" viewBox="0 0 24 24"><path d="M12 14l-4-4-4 4h3.1c.46 4.56 2.48 8 4.9 8s4.44-3.44 4.9-8h-1.99c-.34 3.45-1.51 6-2.91 6s-2.57-2.55-2.91-6H12m0-10c1.4 0 2.57 2.55 2.91 6h1.99c-.46-4.56-2.48-8-4.9-8-2.16 0-4 2.74-4.7 6.58l.7-.7 1.21 1.2C9.64 6.11 10.73 4 12 4m10 9v-2H11l2 2h9M2 13h1l2-2H2v2z"/></svg>

<?xml version="1.0" encoding="UTF-8"?><!DOCTYPE svg PUBLIC "-//W3C//DTD SVG 1.1//EN" "http://www.w3.org/Graphics/SVG/1.1/DTD/svg11.dtd"><svg xmlns="http://www.w3.org/2000/svg" xmlns:xlink="http://www.w3.org/1999/xlink" version="1.1" id="mdi-horizontal-rotate-clockwise" width="24" height="24" viewBox="0 0 24 24"><path d="M12 14L8 10L4 14H7.1C7.56 18.56 9.58 22 12 22S16.44 18.56 16.9 14H14.91C14.57 17.45 13.4 20 12 20S9.43 17.45 9.09 14H12M12 4C13.4 4 14.57 6.55 14.91 10H16.9C16.44 5.44 14.42 2 12 2C9.84 2 8 4.74 7.3 8.58L8 7.88L9.21 9.08C9.64 6.11 10.73 4 12 4M22 13V11H11L13 13H22M2 13H3L5 11H2V13Z" /></svg>
